X:8300
T:Jug of Punch
M:C
L:1/8
K:D Dorian
A,DDE F2FG|A2GB Add2|A,DDE FDdB|cAGE FDEC|!
A,DDE F2FG|A2GB Adde|^fdd2 dcAd|cAGE ^FDD2:|!
d2dA c2cA|d2dA cAGA|d2dA c2cA|GEcE EDD2|!
d2dA c2cA|d2dA cAGA|^fdd2 dcAd|cAGE ^FDD2:|!


